X: 100
T:Les poires
C:Repertori 55
M:3/8
L:1/8
K:C
G/G/|:c2d|c/d/ef|ede/d/|c2d|c/d/ee|d2G/G/:|
|:A2G/G/|A2G|A/B/cd|cBG/G/|A2G|\
A/B/cd|1 c2G/G/:|2 cd/e/d/B/||
